assets/img/flex-card.svg

<svg width="162" height="82" viewBox="0 0 162 82" fill="none" xmlns="http://www.w3.org/2000/svg">
<path d="M6.71302 11.132C6.25702 11.132 5.87302 10.748 5.87302 10.292C5.87302 9.836 6.25702 9.452 6.71302 9.452C7.16902 9.452 7.55302 9.836 7.55302 10.292C7.55302 10.748 7.16902 11.132 6.71302 11.132ZM14.1784 11H12.9184V7.376C12.9184 6.476 12.4624 6.176 11.7544 6.176C11.1064 6.176 10.5544 6.56 10.2664 6.956V11H9.00643V5.204H10.2664V5.996C10.6504 5.54 11.3944 5.06 12.3064 5.06C13.5544 5.06 14.1784 5.732 14.1784 6.92V11ZM15.563 13.268L15.755 12.14C15.887 12.2 16.091 12.236 16.235 12.236C16.631 12.236 16.895 12.116 17.063 11.732L17.351 11.072L14.975 5.204H16.319L18.011 9.548L19.703 5.204H21.059L18.263 12.044C17.867 13.028 17.171 13.34 16.271 13.352C16.091 13.352 15.743 13.316 15.563 13.268ZM23.8302 11.144C22.8462 11.144 21.9462 10.832 21.3462 10.244L21.9222 9.332C22.3302 9.752 23.1342 10.148 23.8902 10.148C24.6462 10.148 25.0302 9.824 25.0302 9.368C25.0302 8.228 21.5262 9.044 21.5262 6.824C21.5262 5.876 22.3422 5.06 23.8062 5.06C24.7902 5.06 25.5342 5.408 26.0622 5.876L25.5342 6.764C25.1862 6.368 24.5382 6.068 23.8182 6.068C23.1582 6.068 22.7382 6.368 22.7382 6.776C22.7382 7.808 26.2422 7.04 26.2422 9.344C26.2422 10.364 25.3902 11.144 23.8302 11.144ZM29.9343 8.636H27.0543V7.556H29.9343V8.636ZM32.668 11H31.408V6.308H30.448V5.204H31.408V4.88C31.408 3.62 32.14 2.876 33.244 2.876C33.76 2.876 34.276 3.008 34.636 3.38L34.144 4.16C33.976 4.004 33.76 3.908 33.472 3.908C32.98 3.908 32.668 4.232 32.668 4.88V5.204H33.844V6.308H32.668V11ZM36.0594 11H34.7994V2.996H36.0594V11ZM40.3699 11.144C38.6299 11.144 37.3339 9.932 37.3339 8.096C37.3339 6.416 38.5579 5.06 40.2739 5.06C42.0139 5.06 43.1299 6.392 43.1299 8.216V8.516H38.6539C38.7499 9.392 39.4099 10.112 40.5019 10.112C41.0659 10.112 41.7379 9.884 42.1459 9.476L42.7219 10.304C42.1459 10.856 41.2939 11.144 40.3699 11.144ZM41.9059 7.628C41.8819 6.944 41.4139 6.092 40.2739 6.092C39.1939 6.092 38.7019 6.92 38.6419 7.628H41.9059ZM49.4496 11H48.0336L46.5336 8.864L45.0216 11H43.6176L45.7416 8.024L43.7376 5.204H45.1536L46.5336 7.172L47.9016 5.204H49.3176L47.3136 8.024L49.4496 11ZM52.7507 8.636H49.8707V7.556H52.7507V8.636ZM54.5484 4.496C54.1284 4.496 53.7684 4.148 53.7684 3.716C53.7684 3.284 54.1284 2.936 54.5484 2.936C54.9804 2.936 55.3284 3.284 55.3284 3.716C55.3284 4.148 54.9804 4.496 54.5484 4.496ZM53.2644 13.352C52.5924 13.352 52.2924 13.22 51.8964 12.932L52.2684 11.996C52.4844 12.188 52.7124 12.32 53.0724 12.32C53.5644 12.32 53.9244 12.02 53.9244 11.336V5.204H55.1844V11.336C55.1844 12.572 54.5364 13.352 53.2644 13.352ZM61.9909 11H60.7309V10.232C60.3109 10.7 59.5909 11.144 58.6789 11.144C57.4309 11.144 56.8189 10.496 56.8189 9.308V5.204H58.0789V8.852C58.0789 9.752 58.5349 10.028 59.2429 10.028C59.8789 10.028 60.4309 9.668 60.7309 9.272V5.204H61.9909V11ZM65.6075 11.144C64.6235 11.144 63.7235 10.832 63.1235 10.244L63.6995 9.332C64.1075 9.752 64.9115 10.148 65.6675 10.148C66.4235 10.148 66.8075 9.824 66.8075 9.368C66.8075 8.228 63.3035 9.044 63.3035 6.824C63.3035 5.876 64.1195 5.06 65.5835 5.06C66.5675 5.06 67.3115 5.408 67.8395 5.876L67.3115 6.764C66.9635 6.368 66.3155 6.068 65.5955 6.068C64.9355 6.068 64.5155 6.368 64.5155 6.776C64.5155 7.808 68.0195 7.04 68.0195 9.344C68.0195 10.364 67.1675 11.144 65.6075 11.144ZM71.0277 11.144C70.0557 11.144 69.5397 10.616 69.5397 9.656V6.308H68.5797V5.204H69.5397V3.62H70.7997V5.204H71.9757V6.308H70.7997V9.344C70.7997 9.74 70.9917 10.028 71.3517 10.028C71.5917 10.028 71.8197 9.932 71.9157 9.824L72.2157 10.772C71.9877 10.988 71.6157 11.144 71.0277 11.144ZM73.7437 4.496C73.3237 4.496 72.9637 4.148 72.9637 3.716C72.9637 3.284 73.3237 2.936 73.7437 2.936C74.1757 2.936 74.5237 3.284 74.5237 3.716C74.5237 4.148 74.1757 4.496 73.7437 4.496ZM74.3797 11H73.1197V5.204H74.3797V11ZM77.5742 11H76.3142V6.308H75.3542V5.204H76.3142V4.88C76.3142 3.62 77.0462 2.876 78.1502 2.876C78.6662 2.876 79.1822 3.008 79.5422 3.38L79.0502 4.16C78.8822 4.004 78.6662 3.908 78.3782 3.908C77.8862 3.908 77.5742 4.232 77.5742 4.88V5.204H78.7502V6.308H77.5742V11ZM79.4536 13.268L79.6456 12.14C79.7776 12.2 79.9816 12.236 80.1256 12.236C80.5216 12.236 80.7856 12.116 80.9536 11.732L81.2416 11.072L78.8656 5.204H80.2096L81.9016 9.548L83.5936 5.204H84.9496L82.1536 12.044C81.7576 13.028 81.0616 13.34 80.1616 13.352C79.9816 13.352 79.6336 13.316 79.4536 13.268ZM88.1648 8.636H85.2848V7.556H88.1648V8.636ZM91.3185 11.144C90.3345 11.144 89.4345 10.832 88.8345 10.244L89.4105 9.332C89.8185 9.752 90.6225 10.148 91.3785 10.148C92.1345 10.148 92.5185 9.824 92.5185 9.368C92.5185 8.228 89.0145 9.044 89.0145 6.824C89.0145 5.876 89.8305 5.06 91.2945 5.06C92.2785 5.06 93.0225 5.408 93.5505 5.876L93.0225 6.764C92.6745 6.368 92.0265 6.068 91.3065 6.068C90.6465 6.068 90.2265 6.368 90.2265 6.776C90.2265 7.808 93.7305 7.04 93.7305 9.344C93.7305 10.364 92.8785 11.144 91.3185 11.144ZM96.7386 11.144C95.7666 11.144 95.2506 10.616 95.2506 9.656V6.308H94.2906V5.204H95.2506V3.62H96.5106V5.204H97.6866V6.308H96.5106V9.344C96.5106 9.74 96.7026 10.028 97.0626 10.028C97.3026 10.028 97.5306 9.932 97.6266 9.824L97.9266 10.772C97.6986 10.988 97.3266 11.144 96.7386 11.144ZM103.631 11H102.371V10.376C101.939 10.868 101.267 11.144 100.499 11.144C99.5506 11.144 98.4826 10.508 98.4826 9.224C98.4826 7.892 99.5506 7.34 100.499 7.34C101.279 7.34 101.951 7.592 102.371 8.084V7.22C102.371 6.548 101.819 6.14 101.015 6.14C100.367 6.14 99.8026 6.38 99.2986 6.872L98.7826 5.996C99.4546 5.36 100.295 5.06 101.219 5.06C102.503 5.06 103.631 5.6 103.631 7.16V11ZM100.991 10.28C101.543 10.28 102.083 10.076 102.371 9.68V8.804C102.083 8.408 101.543 8.204 100.991 8.204C100.283 8.204 99.7546 8.612 99.7546 9.248C99.7546 9.872 100.283 10.28 100.991 10.28ZM106.524 11H105.264V5.204H106.524V6.056C106.956 5.504 107.652 5.072 108.408 5.072V6.32C108.3 6.296 108.168 6.284 108.012 6.284C107.484 6.284 106.776 6.644 106.524 7.052V11ZM111.164 11.144C110.192 11.144 109.676 10.616 109.676 9.656V6.308H108.716V5.204H109.676V3.62H110.936V5.204H112.112V6.308H110.936V9.344C110.936 9.74 111.128 10.028 111.488 10.028C111.728 10.028 111.956 9.932 112.052 9.824L112.352 10.772C112.124 10.988 111.752 11.144 111.164 11.144Z" fill="#4A4D4F"/>
<rect y="17.403" width="38.5499" height="38.5499" fill="#7AA5E7"/>
<rect x="41.6758" y="17.403" width="52.0944" height="52.0944" fill="#7AA5E7"/>
<rect x="96.8955" y="17.403" width="64.5971" height="64.5971" fill="#7AA5E7"/>
</svg>

<svg xmlns="http://www.w3.org/2000/svg" width="162" height="82" fill="none" viewBox="0 0 162 82"><path fill="#4a4d4f" d="M6.713 11.132a.85.85 0 0 1-.84-.84.85.85 0 0 1 .84-.84.85.85 0 0 1 .84.84.85.85 0 0 1-.84.84M14.178 11h-1.26V7.376c0-.9-.456-1.2-1.164-1.2-.648 0-1.2.384-1.488.78V11h-1.26V5.204h1.26v.792a2.74 2.74 0 0 1 2.04-.936c1.248 0 1.872.672 1.872 1.86zm1.385 2.268.192-1.128c.132.06.336.096.48.096.396 0 .66-.12.828-.504l.288-.66-2.376-5.868h1.344l1.692 4.344 1.692-4.344h1.356l-2.796 6.84c-.396.984-1.092 1.296-1.992 1.308-.18 0-.528-.036-.708-.084m8.267-2.124c-.984 0-1.884-.312-2.484-.9l.576-.912c.408.42 1.212.816 1.968.816s1.14-.324 1.14-.78c0-1.14-3.504-.324-3.504-2.544 0-.948.816-1.764 2.28-1.764.984 0 1.728.348 2.256.816l-.528.888c-.348-.396-.996-.696-1.716-.696-.66 0-1.08.3-1.08.708 0 1.032 3.504.264 3.504 2.568 0 1.02-.852 1.8-2.412 1.8m6.104-2.508h-2.88v-1.08h2.88zM32.668 11h-1.26V6.308h-.96V5.204h.96V4.88c0-1.26.732-2.004 1.836-2.004.516 0 1.032.132 1.392.504l-.492.78a.95.95 0 0 0-.672-.252c-.492 0-.804.324-.804.972v.324h1.176v1.104h-1.176zm3.391 0H34.8V2.996h1.26zm4.31.144c-1.74 0-3.035-1.212-3.035-3.048 0-1.68 1.224-3.036 2.94-3.036 1.74 0 2.856 1.332 2.856 3.156v.3h-4.476c.096.876.756 1.596 1.848 1.596.564 0 1.236-.228 1.644-.636l.576.828c-.576.552-1.428.84-2.352.84m1.537-3.516c-.024-.684-.492-1.536-1.632-1.536-1.08 0-1.572.828-1.632 1.536zM49.45 11h-1.416l-1.5-2.136L45.022 11h-1.404l2.124-2.976-2.004-2.82h1.416l1.38 1.968 1.368-1.968h1.416l-2.004 2.82zm3.3-2.364h-2.88v-1.08h2.88zm1.798-4.14a.786.786 0 0 1-.78-.78c0-.432.36-.78.78-.78.432 0 .78.348.78.78s-.348.78-.78.78m-1.284 8.856c-.672 0-.972-.132-1.368-.42l.372-.936c.216.192.444.324.804.324.492 0 .852-.3.852-.984V5.204h1.26v6.132c0 1.236-.648 2.016-1.92 2.016M61.991 11h-1.26v-.768c-.42.468-1.14.912-2.052.912-1.248 0-1.86-.648-1.86-1.836V5.204h1.26v3.648c0 .9.456 1.176 1.164 1.176.636 0 1.188-.36 1.488-.756V5.204h1.26zm3.617.144c-.984 0-1.885-.312-2.485-.9l.577-.912c.407.42 1.212.816 1.968.816.755 0 1.14-.324 1.14-.78 0-1.14-3.505-.324-3.505-2.544 0-.948.817-1.764 2.28-1.764.984 0 1.728.348 2.257.816l-.529.888c-.348-.396-.996-.696-1.716-.696-.66 0-1.08.3-1.08.708 0 1.032 3.504.264 3.504 2.568 0 1.02-.852 1.8-2.412 1.8m5.42 0c-.972 0-1.488-.528-1.488-1.488V6.308h-.96V5.204h.96V3.62h1.26v1.584h1.176v1.104H70.8v3.036c0 .396.192.684.552.684.24 0 .468-.096.564-.204l.3.948c-.228.216-.6.372-1.188.372m2.716-6.648a.786.786 0 0 1-.78-.78c0-.432.36-.78.78-.78.432 0 .78.348.78.78s-.348.78-.78.78M74.38 11h-1.26V5.204h1.26zm3.194 0h-1.26V6.308h-.96V5.204h.96V4.88c0-1.26.732-2.004 1.836-2.004.516 0 1.032.132 1.392.504l-.492.78a.95.95 0 0 0-.672-.252c-.492 0-.804.324-.804.972v.324h1.176v1.104h-1.176zm1.88 2.268.192-1.128c.132.06.336.096.48.096.396 0 .66-.12.828-.504l.288-.66-2.376-5.868h1.344l1.692 4.344 1.692-4.344h1.356l-2.796 6.84c-.396.984-1.092 1.296-1.992 1.308-.18 0-.528-.036-.708-.084m8.71-4.632h-2.88v-1.08h2.88zm3.154 2.508c-.983 0-1.883-.312-2.483-.9l.576-.912c.407.42 1.212.816 1.968.816.755 0 1.14-.324 1.14-.78 0-1.14-3.505-.324-3.505-2.544 0-.948.817-1.764 2.28-1.764.984 0 1.728.348 2.257.816l-.529.888c-.348-.396-.996-.696-1.716-.696-.66 0-1.08.3-1.08.708 0 1.032 3.505.264 3.505 2.568 0 1.02-.852 1.8-2.412 1.8m5.42 0c-.971 0-1.487-.528-1.487-1.488V6.308h-.96V5.204h.96V3.62h1.26v1.584h1.176v1.104H96.51v3.036c0 .396.192.684.552.684.24 0 .468-.096.564-.204l.3.948c-.228.216-.6.372-1.188.372m6.893-.144h-1.26v-.624c-.432.492-1.104.768-1.872.768-.948 0-2.016-.636-2.016-1.92 0-1.332 1.068-1.884 2.016-1.884.78 0 1.452.252 1.872.744V7.22c0-.672-.552-1.08-1.356-1.08-.648 0-1.212.24-1.716.732l-.516-.876c.672-.636 1.512-.936 2.436-.936 1.284 0 2.412.54 2.412 2.1zm-2.64-.72c.552 0 1.092-.204 1.38-.6v-.876c-.288-.396-.828-.6-1.38-.6-.708 0-1.236.408-1.236 1.044 0 .624.528 1.032 1.236 1.032m5.533.72h-1.26V5.204h1.26v.852c.432-.552 1.128-.984 1.884-.984V6.32a2 2 0 0 0-.396-.036c-.528 0-1.236.36-1.488.768zm4.64.144c-.972 0-1.488-.528-1.488-1.488V6.308h-.96V5.204h.96V3.62h1.26v1.584h1.176v1.104h-1.176v3.036c0 .396.192.684.552.684.24 0 .468-.096.564-.204l.3.948c-.228.216-.6.372-1.188.372"/><path fill="#7aa5e7" d="M0 17.403h38.55v38.55H0zM41.676 17.403H93.77v52.094H41.676zM96.895 17.403h64.597V82H96.895z"/></svg>
